svg/elevator_passenger_off.svg

<svg xmlns="http://www.w3.org/2000/svg" viewBox="0 0 24 24"><path d="m22.11 21.46-1.41-1.41v-.01L2.39 1.73 1.11 3 3 4.9V19c0 1.1.9 2 2 2h14.1l1.74 1.73zM11 14h-1v4H7v-4H6v-2.5c0-1 .71-1.79 1.65-1.96L11 12.89zm2.46-3.74L6.2 3H19c1.1 0 2 .9 2 2v12.8l-3.69-3.69L18 13h-1.8l-2-2H18l-2.5-4z"/></svg>

<svg xmlns="http://www.w3.org/2000/svg" id="mdi-elevator-passenger-off" viewBox="0 0 24 24"><path d="M22.11 21.46L20.7 20.05L20.7 20.04L2.39 1.73L1.11 3L3 4.9C3 4.94 3 4.97 3 5V19C3 20.1 3.9 21 5 21H19C19.03 21 19.06 21 19.1 21L20.84 22.73L22.11 21.46M11 14H10V18H7V14H6V11.5C6 10.5 6.71 9.71 7.65 9.54L11 12.89V14M13.46 10.26L6.2 3H19C20.1 3 21 3.9 21 5V17.8L17.31 14.11L18 13H16.2L14.2 11H18L15.5 7L13.46 10.26Z" /></svg>
